original-svg/bell.svg

<svg xmlns="http://www.w3.org/2000/svg" width="48" height="48" viewBox="0 0 48 48">
  <g>
    <path d="M24,42a5.001,5.001,0,0,0,4.8992-4H19.1008A5.001,5.001,0,0,0,24,42Z"/>
    <path d="M36,32V22A11.9932,11.9932,0,0,0,26,10.18V8a2,2,0,0,0-4,0v2.18A11.9932,11.9932,0,0,0,12,22V32H8v4H40V32Z"/>
  </g>
</svg>

<!-- Generated by IcoMoon.io -->
<svg version="1.1" xmlns="http://www.w3.org/2000/svg" width="48" height="48" viewBox="0 0 48 48">
<title>Bell</title>
<path d="M36 32v-10c-0.003-5.917-4.291-10.831-9.928-11.81l-0.072-0.010v-2.18c0-1.105-0.895-2-2-2s-2 0.895-2 2v0 2.18c-5.709 0.989-9.997 5.903-10 11.82v10h-4v4h32v-4z"></path>
<path d="M24 42c0 0 0.001 0 0.001 0 2.407 0 4.417-1.701 4.893-3.967l0.006-0.033h-9.8c0.482 2.299 2.492 4 4.899 4 0 0 0.001 0 0.001 0h-0z"></path>
</svg>
